ui/StatusQ/src/assets/img/icons/receive.svg

<svg fill="none" height="24" viewBox="0 0 24 24" width="24" xmlns="http://www.w3.org/2000/svg"><path clip-rule="evenodd" d="m11.6192 6.84322-6.61756-2.72489c-.54765-.2255-1.09216.32864-.85708.87225l7.15694 16.55052c.1205.2785.395.4589.6985.4589s.578-.1804.6984-.4589l7.157-16.55052c.2351-.54361-.3094-1.09775-.8571-.87225l-6.6176 2.72489c-.2439.10043-.5176.10043-.7615 0zm-.3692 1.67496c0-.12783-.0837-.23927-.2019-.28794l-3.56877-1.4695c-.41489-.17084-.82739.24897-.64931.66079l3.94048 9.11237c.1077.2491.4795.1722.4795-.0992zm1.5.00001c0-.12784.0837-.23928.2019-.28795l3.5687-1.4695c.4149-.17084.8274.24897.6493.66079l-3.9405 9.11237c-.1077.2491-.4794.1722-.4794-.0992z" fill="#000" fill-rule="evenodd"/></svg>

<svg width="24" height="24" viewBox="0 0 24 24" fill="none" xmlns="http://www.w3.org/2000/svg">
<path fill-rule="evenodd" clip-rule="evenodd" d="M11.6192 6.84322L5.00164 4.11833C4.45399 3.89283 3.90948 4.44697 4.14456 4.99058L11.3015 21.5411C11.422 21.8196 11.6965 22 12 22C12.3035 22 12.578 21.8196 12.6984 21.5411L19.8554 4.99058C20.0905 4.44697 19.546 3.89283 18.9983 4.11833L12.3807 6.84322C12.1368 6.94365 11.8631 6.94365 11.6192 6.84322ZM11.25 8.51818C11.25 8.39035 11.1663 8.27891 11.0481 8.23024L7.47933 6.76074C7.06444 6.5899 6.65194 7.00971 6.83002 7.42153L10.7705 16.5339C10.8782 16.783 11.25 16.7061 11.25 16.4347V8.51818ZM12.75 8.51819C12.75 8.39035 12.8337 8.27891 12.9519 8.23024L16.5206 6.76074C16.9355 6.5899 17.348 7.00971 17.1699 7.42153L13.2294 16.5339C13.1217 16.783 12.75 16.7061 12.75 16.4347V8.51819Z" fill="black"/>
</svg>
